src/assets/img/icons/duotone-icons/Design/Pen&ruller.svg

<?xml version="1.0" encoding="UTF-8"?>
<svg width="24px" height="24px" viewBox="0 0 24 24" version="1.1" xmlns="http://www.w3.org/2000/svg" xmlns:xlink="http://www.w3.org/1999/xlink">
    <!-- Generator: Sketch 52.2 (67145) - http://www.bohemiancoding.com/sketch -->
    <title>Stockholm-icons / Design / Pen&amp;ruller</title>
    <desc>Created with Sketch.</desc>
    <g id="Stockholm-icons-/-Design-/-Pen&amp;ruller" stroke="none" stroke-width="1" fill="none" fill-rule="evenodd">
        <rect id="bound" x="0" y="0" width="24" height="24"></rect>
        <path d="M3,16 L5,16 C5.55228475,16 6,15.5522847 6,15 C6,14.4477153 5.55228475,14 5,14 L3,14 L3,12 L5,12 C5.55228475,12 6,11.5522847 6,11 C6,10.4477153 5.55228475,10 5,10 L3,10 L3,8 L5,8 C5.55228475,8 6,7.55228475 6,7 C6,6.44771525 5.55228475,6 5,6 L3,6 L3,4 C3,3.44771525 3.44771525,3 4,3 L10,3 C10.5522847,3 11,3.44771525 11,4 L11,19 C11,19.5522847 10.5522847,20 10,20 L4,20 C3.44771525,20 3,19.5522847 3,19 L3,16 Z" id="Combined-Shape" fill="#335EEA" opacity="0.3"></path>
        <path d="M16,3 L19,3 C20.1045695,3 21,3.8954305 21,5 L21,15.2485298 C21,15.7329761 20.8241635,16.200956 20.5051534,16.565539 L17.8762883,19.5699562 C17.6944473,19.7777745 17.378566,19.7988332 17.1707477,19.6169922 C17.1540423,19.602375 17.1383289,19.5866616 17.1237117,19.5699562 L14.4948466,16.565539 C14.1758365,16.200956 14,15.7329761 14,15.2485298 L14,5 C14,3.8954305 14.8954305,3 16,3 Z" id="Rectangle-102-Copy" fill="#335EEA"></path>
    </g>
</svg>

<svg width="24" height="24" viewBox="0 0 24 24" xmlns="http://www.w3.org/2000/svg"><g fill="none" fill-rule="evenodd"><path d="M0 0h24v24H0z"/><path d="M3 16h2a1 1 0 000-2H3v-2h2a1 1 0 000-2H3V8h2a1 1 0 100-2H3V4a1 1 0 011-1h6a1 1 0 011 1v15a1 1 0 01-1 1H4a1 1 0 01-1-1v-3z" fill="#335EEA" opacity=".3"/><path d="M16 3h3a2 2 0 012 2v10.249a2 2 0 01-.495 1.317l-2.629 3.004a.5.5 0 01-.752 0l-2.63-3.004A2 2 0 0114 15.249V5a2 2 0 012-2z" fill="#335EEA"/></g></svg>
